!!!!SEGMENT: pl-cz--ii-123--002_kottritsch-franciszek--rorate-caeli-benedixisti-domine.krn
!!!cenid: 17xx:928
!!!COM: Kottritsch, Franciszek
!!!COM-rismID: pe30040598
!!!CDT: ~1727-1787
!!!CNT:
!!!OPR: Rorate caeli
!!!OTL: Benedixisti Domine
!!!OMV: 002
!!!PDT:
!!!AGN: Sacred
!!!SMS-siglum: PL-CZ
!!!SMS-shelfmark: II-123
!!!SMS-shelfwork: 001-002 M
!!!SMS-variant:
!!!SMS-altvar:
!!!NIFC-rismSourceID: 300000619
!!!NIFC-rismChildID: 300000620
!!!NIFC-islandoraID: pl-cz:32159
!!!URL-pdf-islandora: https://repozytorium.nifc.pl/islandora/object/pl-cz%3A32159/datastream/PDF/view
!!!URL-scan:
!!!ONB-nifc: UWAGA: części Rorate caeli: Rorate caeli, Benedixisti Domine.
!!!AIN: 1 alto 1 bass 1 organ 1 soprn 1 tenor 2 violn
!!!key: F
**kern	**fba	**kern	**kern	**kern	**text	**kern	**text	**kern	**text	**kern	**text
*part7	*	*part6	*part5	*part4	*part4	*part3	*part3	*part2	*part2	*part1	*part1
*group3	*	*group2	*group2	*group1	*group1	*group1	*group1	*group1	*group1	*group1	*group1
*staff7	*	*staff6	*staff5	*staff4	*staff4	*staff3	*staff3	*staff2	*staff2	*staff1	*staff1
*I"Organo.	*	*I"Violino Secundo	*I"Violino Primo.	*I"Baſso.	*	*I"Tenore	*	*I"Alto.	*	*I"Canto.	*
*I'org	*	*I'vl 2	*I'vl 1	*I'B	*	*I'T	*	*I'A	*	*I'S	*
*Iorgan	*	*Ivioln	*Ivioln	*Ibass	*	*Itenor	*	*Ialto	*	*Isoprn	*
*ICklav	*	*ICstr	*ICstr	*ICvox	*	*ICvox	*	*ICvox	*	*ICvox	*
*clefF4	*	*clefG2	*clefG2	*clefF4	*	*clefC4	*	*clefC3	*	*clefC1	*
*k[b-]	*	*k[b-]	*k[b-]	*k[b-]	*	*k[b-]	*	*k[b-]	*	*k[b-]	*
*F:	*	*F:	*F:	*F:	*	*F:	*	*F:	*	*F:	*
*M3/4	*	*M3/4	*M3/4	*M3/4	*	*M3/4	*	*M3/4	*	*M3/4	*
=1	=1	=1	=1	=1	=1	=1	=1	=1	=1	=1	=1
*2\right	*	*2\right	*2\right	*2\right	*	*2\right	*	*2\right	*	*2\right	*
4F\	.	8cc\L	8aa\L	4F\	Be-	4c\	Be-	4a\	Be-	4ff\	Be-
.	.	8cc\	8aa\	.	.	.	.	.	.	.	.
4E\	x 6	8cc\	8gg\	4E\	-ne-	4c\	-ne-	4g\	-ne-	4cc\	-ne-
.	.	8cc\	8gg\	.	.	.	.	.	.	.	.
4F\	.	8cc\	8aa\	4F\	-di-	4c\	-di-	4a\	-di-	4ff\	-di-
.	.	8cc\J	8aa\J	.	.	.	.	.	.	.	.
!	!	!	!	!	!	!	!	!	!	!LO:LB:g=original	!
=2	=2	=2	=2	=2	=2	=2	=2	=2	=2	=2	=2
2E\	x 6	4cc\	4gg\	2E\	-xi-	2c\	-xi-	2g\	-xi-	2cc\	-xi-
.	.	4ee\	4cc\	.	.	.	.	.	.	.	.
4C/	.	4ee\	4ccc\	4C\	-ſti	4c\	-ſti	4g\	-ſti	4ee\	-sti
=3	=3	=3	=3	=3	=3	=3	=3	=3	=3	=3	=3
4.F\	.	8aa\L	8ccc\L	4.F\	Do-	4.c\	Do-	4.a\	Do-	4.ff\	Do-
.	.	8gg\	8bb-\	.	.	.	.	.	.	.	.
.	.	8ff\	8aa\	.	.	.	.	.	.	.	.
8G\	.	8ee\	8gg\	8G\	-mi-	8B-X\	-mi-	8g\	-mi-	8ee\	-mi-
4A\	x 6	8dd\	8ff\	4A\	-ne	4c\	-ne	4f\	-ne	4ff\	-ne
.	.	8cc\J	8ee\J	.	.	.	.	.	.	.	.
!	!	!LO:LB:g=original	!	!	!	!	!	!	!	!	!
=4	=4	=4	=4	=4	=4	=4	=4	=4	=4	=4	=4
4B-\	.	4b-\	4dd\	4B-\	ter-	2d\	ter-	2f\	ter-	(4dd\	ter-
4G\	.	4dd\	4bb-\	4G\	.	.	.	.	.	4gg\)	.
4c\	.	4ee\	4gg\	4c\	-ram	4G/	-ram	4e\	-ram	4ee\	-ram
=5	=5	=5	=5	=5	=5	=5	=5	=5	=5	=5	=5
2F\	.	2ff\	2aa\	2F\	tu-	2A/	tu-	2f\	tu-	2cc\	tu-
4F\	.	4ff\	4aa\	4F\	-am,	4A/	-am	4f\	-am.	4cc\	-am
=6	=6	=6	=6	=6	=6	=6	=6	=6	=6	=6	=6
4r	.	4r	4r	4r	.	4r	.	4r	.	4r	.
4F\	.	4cc\	4aa\	4F\	a-	4c\	a-	4a\	a-	4cc\	a-
4E\	x 6\	4cc#X\	4gg\	4E\	-ver-	4c#X\	-ver-	4g\	-ver-	4ee\	-ver-
!	!	!	!	!LO:LB:g=original	!	!LO:LB:g=original	!	!	!	!	!
=7	=7	=7	=7	=7	=7	=7	=7	=7	=7	=7	=7
2D/	.	4dd\	4ff\	2D/	-ti-	2A/	-ti-	2f\	-ti-	2a\	-ti-
.	.	4ff\	4aa\	.	.	.	.	.	.	.	.
4C#X/	x 6	4ee\	4aa\	4C#X/	-ſti	4A/	-ſti	4e\	-ſti	4cc#X\	-ſti
!	!	!	!LO:LB:g=original	!	!	!	!	!	!	!	!
=8	=8	=8	=8	=8	=8	=8	=8	=8	=8	=8	=8
4D\	x 56-r	4dd\	4ff\	4D/	Cap-	(8A\L	cap-	4f\	Cap-	4ff\	Cap-
.	.	.	.	.	.	8B-X\J)	.	.	.	.	.
4A\	x 6n	4ccn\	4ff\	4A\	-ti-	4c\	-ti-	4f\	-ti-	4cc\	-ti-
4A\	.	4cc\	4ff\	4A\	-vi-	4c\	-vi-	4f\	-vi-	4ff\	-vi-
!	!	!	!	!	!	!	!	!LO:LB:g=original	!	!	!
=9	=9	=9	=9	=9	=9	=9	=9	=9	=9	=9	=9
4B-X\	.	4dd\	4ff\	(4B-\	-ta-	(4d\	-ta-	(4f\	-ta-	(4dd\	-ta-
4G\	x 6	4ee\	4bb-\	4G\)	.	4e\)	.	4b-X\)	.	4g\)	.
4F\	.	4ff\	4aa\	4F\	-tem	4f\	-tem	4a\	-tem	4cc\	-tem
=10	=10	=10	=10	=10	=10	=10	=10	=10	=10	=10	=10
2c\	.	2ee\	2gg\	2c\	Ja-	2e\	Ja-	2g\	Ja-	2cc\	Ja-
4C/	.	4ee\	4gg\	4C/	-cob,	4e\	-cob	4g\	-cob	4cc\	-cob
!LO:LB:g=original	!	!	!	!	!	!	!	!	!	!LO:LB:g=original	!
=11	=11	=11	=11	=11	=11	=11	=11	=11	=11	=11	=11
4c\	.	4ee\	4gg\	4c\	Cap-	4G/	cap-	4e\	cap-	4cc\	Cap-
4c\	.	4cc\	4ee\	4c\	-ti-	4G/	-ti-	4e\	-ti-	4cc\	-ti-
4c\	.	4ee\	4gg\	4c\	-vi-	4G/	-vi-	4e\	-vi-	4cc\	-vi-
=12	=12	=12	=12	=12	=12	=12	=12	=12	=12	=12	=12
4A\	.	4cc\	4ff\	(4A\	-ta-	(4A\	-ta-	(4f\	-ta-	(4cc\	-ta-
4G\	x 6	4ee\	4bb-\	4G\)	.	4B-\)	.	4g\)	.	4b-X\)	.
4F\	.	4ff\	4aa\	4F\	-tem	4c\	-tem	4a\	-tem	4a\	-tem
=13	=13	=13	=13	=13	=13	=13	=13	=13	=13	=13	=13
4B-\	6 5	4ff\	4gg\	(4B-\	Ja-	(4d\	Ja-	(2f\	Ja-	(4g\	Ja-
4c\	x 45	4.ee\	4.gg\	4c\	.	2G/)	.	.	.	2cc\)	.
4C/	.	.	.	4C/)	.	.	.	4e\)	.	.	.
.	.	8ff\	8ff\	.	.	.	.	.	.	.	.
=14	=14	=14	=14	=14	=14	=14	=14	=14	=14	=14	=14
2.FF;/	.	2.ff\	2.ff\	2.FF;/	-cob.	2.A/	-cob.	2.f\	-cob.	2.cc\	-cob.
!LO:TX:b:t=Rorate, ut supra	!	!LO:TX:b:t=Rorate\nut Supra	!LO:TX:b:t=Rorate, ut supra.	!LO:TX:b:t=ut Supra\nRorate	!	!LO:TX:b:t=Supra\nRorate ut	!	!LO:TX:b:t=Rorate ut supra	!	!LO:TX:b:t=Rorate, ut supra	!
==	==	==	==	==	==	==	==	==	==	==	==
*-	*-	*-	*-	*-	*-	*-	*-	*-	*-	*-	*-
!!!system-decoration: [g1][g2]g3
!!!ENC: Katarzyna Serwa
!!!END: 2022-02-05
!!!ENC: Marta Chmielewska
!!!END: 2020-08-12
!!!YEC: Copyright 2022 Narodowy Instytut Fryderyka Chopina (https://polishscores.org)
!!!YEM: License CC-BY-4.0 (https://creativecommons.org/licenses/by/4.0)
